X: 3512
T: Biddy The Bold
R: jig
M: 6/8
K: Gmajor
M:6/8
L:1/8
R:Jig
K:G
|:DGB d2d|dBG g2e|dBG DGB|cBc A2d
|DGB d2 e|dBG g2e|dBG DGB|1 AGF GFE:|2 AGF GBc||
|:d2g gfg|agf efg|dBG DGB|1 cBc ABc|
d2g gfg|agf efg|dBG DGB|AGF GBc:|
[2cBc A2d|DGB d2 e|dBG g2e|dBG DGB|AGF GFE||


